X:1
T:As shepherds watched their fleecy care
T:As shepherds watched their fleecy care (Joseph Key)
C:Joseph Key
Z:p44, Five Anthems, Four
Z:Collects ... Book III.
Z:London: [1785]
%%score [ 1 2 3 ( 4 5 ) ]
L:1/8
M:2/4
K:C
V:1 treble nm="Soprano" snm="S."
V:2 treble nm="Alto" snm="A."
V:3 treble-8 transpose=-12 nm="Tenor" snm="T."
V:4 bass nm="Bass" snm="B."
V:5 bass 
V:1
 z2 z G | (ce) (df) | (fe) (dc) | (ed) (cB) | (Bc) z e | (ed) (dc) | (cB) (d/c/B/A/) | G2 T^F2 | %8
w: A-|rise, _ your _|ten- * der _|care _ for- *|sake, _ With|has- * ty _|steps _ your _ _ _|jour- ney|
w: As|shep- * herds _|watch’d _ their _|flee- * cy _|care, _ An|heav’n- * ly _|an- * gel _ _ _|did ap-|
w: In|Beth- * le’m _|town _ this _|bless- * ed _|morn, _ The|Sa- * viour _|of _ man- * * *|kind is|
 G4 |: G2 c>B | TA3 A | d2 (dc) | (c2 B)G | (cd) e2 | (AB) c2 | (d/e/f) (e>f) | (ed) z G | %17
w: take,|To Da- vid’s|ci- ty;|there you’ll _|find _ The|great _ re-|deem- * er|of _ _ man- *|kind, _ the|
w: pear:|‘Shep- herds, at-|tend; to|you I _|bring _ Glad|tid- * ings|of _ a|new _ _ born _|king, _ glad|
w: born;|Born of a|spot- less|vir- gin _|pure, _ Free|from _ all|sin, _ from|guilt _ _ se- *|cure, _ free|
 (ce) (df) | (ec) (fd) | c2 TB2 | c4 :|[M:3/4]"^Chorus" (c>d cd) e2 | (e2 d2) e2 | (e>d c2) TB2 | %24
w: great _ re- *|deem- * er _|of man-|kind.||||
w: tid- * ings _|of _ a _|new born|king.’|Loud _ _ _ ho-|san- * nas|send _ _ on|
w: from _ all _|sin, _ from _|guilt se-|cure.||||
 c6 | (A>B AB) c2 | d4 e2 | (f>e d2) c2 | (c2 B4) | (e>f ed) c2 | (B>c d2) B2 | (cB/A/ G2) T^F2 | %32
w: ||||||||
w: high,|Raise _ _ _ your|voi- ces|to _ _ the|sky, _|raise _ _ _ your|voi- * * ces|to _ _ _ the|
w: ||||||||
 G6 |: (E>F EF) G2 | F4 F2 | (F>G FG) A2 | G6 | G4 c2 | (c>d cd) e2 | (fe d2) (ec) | (c2 B4) | %41
w: |||||||||
w: sky:|Hymns _ _ _ of|prai- ses|ev- * * * er|sing,|To this|new- * * * born|heav’n- * * ly _|King, _|
w: |||||||||
 G4 c2 | (A2 G2) c2 | (fe/d/ c2) TB2 | c6 :| %45
w: ||||
w: to this|new- * born|heav’n- * * * ly|King.|
w: ||||
V:2
 z4 | z4 | z4 | z4 | z4 | z4 | z4 | z4 | z4 |: z4 | z4 | z4 | z4 | z4 | z4 | z4 | z4 | z4 | z4 | %19
w: |||||||||||||||||||
 z4 | z4 :|[M:3/4] (E>F EF) G2 | G4 G2 | G4 G2 | G6 | F4 G2 | F4 E2 | A4 G2 | G6 | G4 (F>E) | %30
w: ||Loud _ _ _ ho-|san- nas|send on|high,|Raise your|voi- ces|to the|sky,|raise your _|
 D4 G2 | (E2 D2) (D>C) | B,6 |: (C2 E2) E2 | (CB, CD) C2 | (D2 F2) F2 | D6 | (E>F EF) G2 | F4 G2 | %39
w: voi- ces|to _ the _|sky:|Hymns _ of|prai- * * * ses|ev- * er|sing,|To _ _ _ this|new- born|
 (FG A2) (EF) | G6 | E4 E2 | F4 E2 | (A2 G2) F2 | E6 :| %45
w: heav’n- * * ly _|King,|to this|new- born|heav’n- * ly|King.|
V:3
 z4 | z4 | z4 | z4 | z4 | z4 | z4 | z4 | z4 |: z4 | z4 | z4 | z4 | z4 | z4 | z4 | z4 | z4 | z4 | %19
w: |||||||||||||||||||
 z4 | z4 :|[M:3/4] G4 c2 | (c2 B2) B2 | c4 d2 | e6 | c4 c2 | B4 c2 | (d>e f2) e2 | (e2 d4) | %29
w: ||Loud ho-|san- * nas|send on|high,|Raise your|voi- ces|to _ _ the|sky, _|
 (c2 B2) A2 | (G2 ^F2) G2 | (AB/c/ B2) TA2 | G6 |: (G2 c2) B2 | (A^G AB) A2 | (A2 d2) c2 | %36
w: raise _ your|voi- * ces|to _ _ _ the|sky:|Hymns _ of|prai- * * * ses|ev- * er|
 (c2 B4) | (c>d cd) e2 | (A>B AB) c2 | (de f2) e2 | (e2 d4) | c4 G2 | (A2 B2) c2 | (de/f/ e2) Td2 | %44
w: sing, _|To _ _ _ this|new- * * * born|heav’n- * * ly|King, _|to this|new- * born|heav’n- * * * ly|
 c6 :| %45
w: King.|
V:4
 z2 z C, | C,2 G,2 | C2 F,2 | G,2 G,,2 | C,2 z C | B,2 A,2 | G,2 C,2 | D,2 D,2 | G,,4 |: %9
w: A-|rise, your|ten- der|care for-|sake, With|has- ty|steps your|jour- ney|take,|
w: As|shep- herds|watch’d their|flee- cy|care, An|heav’n- ly|an- gel|did ap-|pear:|
w: In|Beth- le’m|town this|bless- ed|morn, The|Sa- viour|of man-|kind is|born;|
 (C,>D,) E,>E, | F,3 F, | (D,E,) ^F,2 | G,3 E, | %13
w: To _ Da- vid’s|ci- ty;|there _ you’ll|find The|
w: ‘Shep- * herds, at-|tend; to|you _ I|bring Glad|
w: Born _ of a|spot- less|vir- * gin|pure, Free|
"^Notes:The first verse and chorus only are underlaid in the source: the four subsequent verses are printed after themusic, in each case followed by 'Cho.' to indicate that the chorus should be sung after each verse.The following notes are printed in the source as small grace notes, and have been written out editorially:bar 5, beat 1, soprano B; bar 7, beat 2, soprano D; bar 13, beat 1, soprano C; bar 37, beat 1, tenor C.The alto part is printed in the source in the treble clef, an octave above sounding pitch." C,2 C,2 | %14
w: great re-|
w: tid- ings|
w: from all|
 F,2 E,2 | D,2 C,2 | [G,,G,]2 z E, | C,2 G,2 | C2 F,2 | G,2 G,,2 | C,4 :|[M:3/4] (C,2 E,2) C,2 | %22
w: deem- er|of man-|kind, the|great re-|deem- er|of man-|kind.||
w: of a|new born|king, glad|tid- ings|of a|new born|king.’|Loud _ ho-|
w: sin, from|guilt se-|cure, free|from all|sin, from|guilt se-|cure.||
 (G,>A, G,F,) (E,D,) | C,4 G,2 | C6 | F,4 E,2 | D,4 C,2 | F,4 C,2 | G,6 | (C,>D, E,2) F,2 | %30
w: ||||||||
w: san- * * * nas _|send on|high,|Raise your|voi- ces|to the|sky,|raise _ _ your|
w: ||||||||
 (G,2 D,2) E,2 | (C,2 D,2) [D,,D,]2 | G,,6 |: (C,>D, C,D,) E,2 | F,4 F,2 | (D,>E, D,E,) F,2 | G,6 | %37
w: |||||||
w: voi- * ces|to _ the|sky:|Hymns _ _ _ of|prai- ses|ev- * * * er|sing,|
w: |||||||
 C,4 C,2 | F,4 E,2 | D,4 C,2 | (G,A, G,F, E,D,) | (C,2 E,2) C,2 | (F,2 G,2) A,2 | (F,2 G,2) G,,2 | %44
w: |||||||
w: To this|new- born|heav’n- ly|King, _ _ _ _ _|to _ this|new- * born|heav’n- * ly|
w: |||||||
 C,6 :| %45
w: |
w: King.|
w: |
V:5
 x4 | x4 | x4 | x4 | x4 | x4 | x4 | x4 | x4 |: x4 | x4 | x4 | x4 | x4 | x4 | x4 | x4 | x4 | x4 | %19
 x4 | x4 :|[M:3/4] x6 | x6 | x6 | x6 | x6 | x6 | x6 | x6 | x6 | x6 | x6 | x6 |: x6 | x6 | x6 | x6 | %37
 x6 | x6 | x6 | G,,6 | x6 | x6 | x6 | x6 :| %45

